X:32
T:Log Cabin, The
R:reel
Z:Transcribed by Dave Marshall
M:C|
K:Dmix
|: A,D~D2 (3EFG AB | cdDE FAB^c|d2^cd BdAG|F2DB, C2B,C|
A,D~D2 (3EFG AB|cdDE FAB^c|d2^cd BdAG| FGEF D4 :|
|:d2fd Adfd|g2fg egfe|d2fd dcAB|cAGE CDEG|
d2fd Adfd|(3B^cd ef g2ag|fae^c dBAG| FGEF D4:|
